src/lib/assets/images/tailwind-logo.svg

<svg width="43" height="27" viewBox="0 0 43 27" fill="none" xmlns="http://www.w3.org/2000/svg">
<path d="M21.0316 0.832601C13.4667 1.06875 11.2184 6.37644 10.7031 9.25188C11.3745 8.18603 13.4902 5.84741 16.6051 5.84741C20.2353 5.84741 22.9989 9.82701 24.6851 11.0692C26.7338 12.5784 30.8505 14.571 36.2549 12.9555C40.5642 11.6673 42.5628 7.17388 43 5.04224C40.9155 7.82566 37.7538 9.49751 33.8425 7.52661C31.1492 6.16941 29.135 0.579609 21.0316 0.832601Z" fill="#07B6D5"/>
<path d="M10.3284 13.4615C2.76362 13.6977 0.51525 19.0053 0 21.8808C0.671385 20.8149 2.78704 18.4763 5.90196 18.4763C9.53213 18.4763 12.2957 22.4559 13.982 23.6981C16.0307 25.2073 20.1474 27.1999 25.5517 25.5844C29.8611 24.2962 31.8597 19.8028 32.2968 17.6711C30.2124 20.4546 27.0506 22.1264 23.1394 20.1555C20.4461 18.7983 18.4319 13.2085 10.3284 13.4615Z" fill="#07B6D5"/>
</svg>

<svg xmlns="http://www.w3.org/2000/svg" width="43" height="27" fill="none"><path fill="#07B6D5" d="M21.032.833c-7.565.236-9.814 5.543-10.329 8.419.671-1.066 2.787-3.405 5.902-3.405 3.63 0 6.394 3.98 8.08 5.222 2.049 1.51 6.166 3.502 11.57 1.886 4.31-1.288 6.308-5.781 6.745-7.913-2.084 2.784-5.246 4.456-9.157 2.485C31.149 6.169 29.135.58 21.032.833ZM10.328 13.461C2.764 13.698.515 19.005 0 21.881c.671-1.066 2.787-3.405 5.902-3.405 3.63 0 6.394 3.98 8.08 5.222 2.049 1.51 6.165 3.502 11.57 1.886 4.31-1.288 6.308-5.781 6.745-7.913-2.085 2.784-5.246 4.455-9.158 2.485-2.693-1.358-4.707-6.947-12.81-6.694Z"/></svg>
